X:1
T:This Is the Day of Toil
T:This Is the Day of Toil
T:George Coles Stebbins, before 1895
T:Horatius Bonar, 1866
T:Public Domain Courtesy of the Cyber Hymnal™
C:George Coles Stebbins, before 1895
Z:Public Domain
Z:Courtesy of the Cyber Hymnal™
%%score ( 1 2 ) ( 3 4 )
L:1/8
Q:1/4=110
M:4/4
K:F
V:1 treble 
V:2 treble 
V:3 bass 
V:4 bass 
V:1
 (FG) | [FA]2 [FA]2 [FA]2 [EG]2 | F6 ([FA][GB]) | [Ac]2 [Ac]2 [Ac]2 [GB]2 | [FA]6 [Fc]2 | %5
w: 1.~This *|is the day of|toil Be- *|neath earth’s sul- try|noon; This|
w: 2.~Spend *|and be spent would|we, While *|last- eth time’s brief|day; No|
w: 3.~On- *|ward we press in|haste, Up- *|ward our jour- ney|still Ours|
w: 4.~The *|way may rough- er|grow, The *|wear- i- ness in-|crease; We|
 [Fd]2 [Fd]2 [Fc]2 [FA]2 | [EB]2 [EB]2 [FA]2 [DG]2 | [Fc]2 (FG) [FA]2 [EG]2 | F6 || %9
w: is the day of|ser- vice true, But|rest- ing * com- eth|soon.|
w: turn- ing back in|cow- ard fear, No|lin- gering * by the|way.|
w: is the path the|Mas- ter trod Thro’|good re- * port and|ill.|
w: gird our loins and|hast- en on, The|end, the * end is|peace.|
"^Refrain" [Ac]>[Ac] | [Ac]4 [FA] z [Fc]>[Fc] | [Fd]4 [FB] z [Fd]>[Fd] | [Fc]2 [CA]2 [DF]2 [FG]2 | %13
w: ||||
w: Hal- le-|lu- jah! Hal- le-|lu- jah! There re-|mains a rest for|
w: ||||
w: ||||
 [EG]6 [Ec]>[Ec] | [Fc]4 [FA] z [Fc]>[Fc] | [Fd]4 !fermata![FB]2 [Fd]>[Fd] | %16
w: |||
w: us. Hal- le-|lu- jah! Hal- le-|lu- jah! There re-|
w: |||
w: |||
 [Fc]2 (FG) [FA]2 [EG]2 | F6 |] %18
w: ||
w: mains a * rest for|us.|
w: ||
w: ||
V:2
 C2 | x8 | F6 x2 | x8 | x8 | x8 | x8 | x2 F2 x4 | F6 || x2 | x8 | x8 | x8 | x8 | x8 | x8 | %16
 x2 F2 x4 | F6 |] %18
V:3
 (A,B,) | [F,C]2 [F,C]2 [F,C]2 [C,B,]2 | [F,A,]6 [F,C]2 | [F,C]2 [F,C]2 [F,C]2 [C,C]2 | %4
 [F,C]6 [A,C]2 | B,2 B,2 [A,C]2 [A,C]2 | [G,C]2 [G,C]2 [F,C]2 [B,,B,]2 | %7
 [C,A,]2 (A,B,) [C,C]2 [C,B,]2 | [F,A,]6 || [F,C]>[F,C] | [F,C]4 [F,C] z [F,A,]>[F,A,] | %11
 [B,,B,]4 [B,,D] z [B,,B,]>[B,,B,] | [F,A,]2 F,2 [D,A,]2 [D,=B,]2 | [C,C]6 [C,B,]>[C,B,] | %14
 [F,A,]4 [F,C] z [F,A,]>[F,A,] | [B,,B,]4 !fermata![B,,D]2 [B,,B,]>[B,,B,] | %16
 [C,A,]2 (A,B,) [C,C]2 [C,B,]2 | [F,A,]6 |] %18
V:4
 F,2 | x8 | x8 | x8 | x8 | B,2 B,2 x4 | x8 | x2 D,2 x4 | x6 || x2 | x8 | x8 | x2 F,2 x4 | x8 | x8 | %15
 x8 | x2 D,2 x4 | x6 |] %18

